X:1
T:Avecque vous
T:Avecque vous
T:Orlande de Lassus
C:Orlande de Lassus
%%score [ 1 [ 2 3 ] 4 ]
L:1/8
Q:1/4=90
M:2/2
K:F
V:1 treble nm="Superius" snm="S"
V:2 treble-8 nm="Tenor 1" snm="T 1"
V:3 treble-8 nm="Tenor 2" snm="T 2"
V:4 bass nm="Bassus" snm="B"
V:1
 d4 =B2 c2 | A4 z4 | z2 d4 c2 | A2 B3 A GF | G2 G2 ^F4 | z8 | z2 A2 d2 =B2 | cB AG F3 F | %8
w: A- vec- que|vous|mon a-|mour fi- * * *|* ne- ra,||a- vec- que|vous _ _ _ _ mon|
 F4 D2 A2- | AG G4 F2 | G4 z2 E2 | G2 G2 A4 | G2 A2 B2 B2- | Bc d3 c B2- | BA AG/A/ B3 B | %15
w: a- mour fi-|* * * ne-|ra, puis-|que mon cueur|est en vous seu-||* * * * * * le-|
 F4 z2 B2- | BAB G2 F G2 | z2 z d2 c d2 | BB A4 A2 | D2 G2 A4- | A4 ^F4 | G8- | G4 F4 | %23
w: ment, plaise|_ se vous donc a- voir,|plai- se vous|donc a- voir con-|ten- te- ment,|_ car|le|_ corps|
 F2 B2 A2 G2 | c2 B2 A2 z D | F2 G B2 Acc- | cB A2 D>E F2 | G2 A2 z AG^F | G2 A3 G G2- | %29
w: mort, l'es- prit vous|ser- vi- ra, l'es-|prit vous ser- vi- ra, l'es-|* prit vous ser- * *|vi- ra, l'es- prit vous|ser- * * *|
"^#" G2 F2 G4- | G8 |] %31
w: * vi- ra.|_|
V:2
 z2 d2 g2 e2 | f4 z4 | z2 f4 f2 | fe dc B2 B2- | B2 c2 d2 d2 | =B2 d2 G2 c2 | f2 f2 d3 g | %7
w: A- vec- que|vous|mon a-|mour _ _ _ _ fi-|* ne- ra, a-|vec- que vous, a-|vec- que vous, a-|
 e2 f2 d2 d2 | c2 d2 f3 f | d8- | d4 z2 c2 | e2 e2 f4 | e2 c2 g2 g2- | gf f3 e ed/e/ | %14
w: vec- que vous mon|a- mour fi- ne-|ra,|_ puis-|que mon cueur|est en vous seu-||
 f2 f2 d2 d2- | dc d2 f2 dg- | gff_e d4- | d4 z g2 f | g2 e2 ^f4 | g2 e2 f3 f | e4 z2 d2 | %21
w: * le- ment, plai|_ se vous donc a- voir|_ con- ten te- ment,|_ pla- se|vous donc a-|voir con- ten- te-|ment, car|
 d2 d2 G2 d2 | _e4 c4 | d2 f3 e2 d | ef ge ^f2 g2 | c2 z g f2 _e2 | d>e fe g2 c2 | ee f3 eed | %28
w: le corps mort, car|le corps|mort, l'es- prit vous|ser- * * * * vi-|ra, l'es- prit vous|ser- * * * * vi-|ra, l'es- prit vous ser- vi-|
 e3 f d4- | d2 d2 d4- | d8 |] %31
w: ra, vous ser-|* vi- ra.|_|
V:3
 z8 | d4 =B2 c2 | A2 B3 A/G/ AB | c2 B2 G2 G2- | G2 G2 A2 A2 | d2 =B2 c2 A2 | d3 c B2 G2 | %7
w: |A- vec- que|vous mon _ _ _ _|_ a- mour fi-|* ne- ra, a-|vec- que vous mon|a- * * mour|
 A2 F2 B2 B2 | A2 A2 B2 c2 | B2 B2 A3 A | G4 z2 G2 | c2 c2 c4 | z2 f2 d2 _e2 | d2 d2 B2 B2 | %14
w: fi- ne- ra, a-|vec- que vous mon|a- mour fi- ne-|ra, puis-|que mon cueur,|puis- que mon|cueur est en vous|
 c3 c B4 | z2 B3 A B2 | ccdc BAGB- | BA B2 AG A2 | z d2 c d2 dd | =B2 c2 cA d2- |"^#" d2 c2 d2 A2 | %21
w: seu- le- ment,|plai- se vous|donc a- voir con- ten- te ment, pla-|* se vous donc a- voir,|plai- se vous donc a-|voir con ten- * *|* te- ment, car|
 B2 G2 d2 B2 | cB B4 A2 | B2 d3 c2 B | A2 G2 d2 B2 | A2 G2 dd G2 | z d2 c2 B A2 | G2 d d2 c>BA | %28
w: le corps mort car|le _ corps _|mort vous _ _|ser- vi- ra, l'es-|prit vous ser- vi- ra,|l'es- prit vous ser-|vi- ra, l'es- prit _ _|
 c4 B4 | A4 =B4- | B8 |] %31
w: vous ser-|vi- ra.|_|
V:4
 z8 | z2 D,2 G,2 E,2 | F,2 B,,2 D,2 F,2- | F,2 G,3 F, _E,D, |"^#""^#" _E,2 E,2 D,4 | %5
w: |A- vec- que|vous mon a- mour|_ fi- * * *|* ne- ra,|
 z2 G,2 E,2 F,2 | D,4 z4 | z4 z2 B,,2 | F,E, D,C, B,,2 A,,2 | B,,3 G,, D,2 D,2 | G,,4 z2 C,2 | %11
w: a- vec- que|vous,|mon|a- * * * * mour|fi- * * ne-|ra, puis-|
"^-natural" C,2 C,2 F,G, A,B, | C2 F,2 G,2 _E,2 | B,3 A, G,2 G,2 | F,4 z2 B,,2- | %15
w: que mon cueur, _ _ _|_ est en vous|seu- * * le-|ment, plai-|
 B,,A,, B,,2 D,2 G,2 |"^b" E,F,B,,C, D,2 z G,- | G,^F, G,2 F,E,D,D, | G,2 A,2 D,2 D,2 | %19
w: * se vous donc a-|voir con- ten- te- ment, plai-|* se vous donc a- voir con-|ten- te- ment, a-|
 G,2 C,2 F,2 D,2 | A,4 z2 D,2 | G,2 B,3 A, G,F, | _E,4 F,4 | B,,4 z4 | z4 z2 G,2 | %25
w: voir con- ten- te-|ment, car|le corps _ _ _|_ _|mort,|l'es-|
 F,2 _E,2 D,2 C,2 | G,2 z A, G,2 F,2 | E,2 D,2 A,2 z D, | C,2 A,,2 B,,3 C, | D,2 D,2 G,,4- | %30
w: prit vous ser- vi-|ra, l'es- prit vous|ser- vi- ra, l'es-|prit vous ser- *|* vi- ra.|
 G,,8 |] %31
w: _|

